X: 26
T:Star of Munster, The
M:C|
L:1/8
R:Reel
K:ADor
ed[|:c2Ac B2GB|AGEF GEDF|EAAG ABcd|eaaf gfed|!
cBAc BAGB|AGEF GEDF|EAAG ABcd|1eBdB A2ed:|2eBdB A2Bd|!
|:eaab ageg|agbg agef|gfga gede|geaf gedf|!
eaab ageg|agbg agef|~g3e ~a3g|~b3b aged:|]!
